X:1
T:Isaac Watts, 1706 Love to Christ, Present or Absent 88. 88. (L. M.)
T:D Major Oliver Holden, 1800
T:Andover No copyright. Transcribed from Plain Psalmody, 1800.
%%score [ 1 2 3 ]
L:1/8
M:4/4
K:D
V:1 treble nm="Treble" snm="Tr"
V:2 treble-8 nm="Tenor" snm="T"
V:3 bass nm="Bass" snm="B"
V:1
 F2 A2 d2 | d2 f2 e2 d2 | (d2 !fermata!c2) d2 dd | d2 f2 e2 d2 | c4 A2 B/>c/d | A2 d2 c2 B2 | %6
w: 1.~Of all the|joys that mor- tals|know, * Je- sus, Thy|love ex- ceeds the|rest; Love the * best|bles- sing here be-|
w: 2.~While I am|held in His em-|brace, * There's not a|thought at- tempts to|rove; Each smile * He|wears up- on His|
 A3 F Ad cd | d2 ^B2 A2 G2 | F4 z4 | z4 FGEG | (F2 G)A ed dc | d4 e2 fd | cdA^G A3 F | GBAc d2 c2 | %14
w: low, And near- * est *|im- age of the|blest.|Sweet * are my|thoughts * and soft * my *|cares, When the ce-|les- tial flame I feel; In|all my hopes and all my|
w: face Fix- es, * and *|tires, and charms my|love.|He * speaks, and|straight * im- mor- * tal *|joys Run through my|ears and reach my heart; My|soul all melts at that dear|
 d3 d ddcA | B2 ^A2 B3 =A | AAef eddd | dcBA G2 E2 | D3 E Gdge | d2 c2 d4 |] %20
w: fears, There's some- thing kind and|plea- sing still, In|all my hopes and all my fears, There's|some- thing kind and plea- sing|still, There's some- thing kind and|plea- sig still.-|
w: voice, And plea- sure shoots through|eve- ry part; My|soul all melts at that dear voice, And|plea- sure shoos through eve- ry|part, And plea- sure shoots through|eve- ry part.|
V:2
 D2 F2 B2 | AB/c/ dA G2 F2 | (F2 !fermata!E2) GBAG | GFAd c2 B2 | A4 d2 G/>A/B | AF D2 C2 B,2 | %6
w: 3.~If He with-|draw * * * a mo- ment's|space, * He * leaves a|sac- * * red pledge be-|hind; Here in * this|breast * His im- age|
w: 4.~When round His|courts * * * by day I|rove, * Or * ask the|watch- * * men of the|night, For some * kind|ti- * dings of my|
 A,3 D EF GA | B>c d2 D2 E2 | D4 z4 | z4 ABGE | (D2 E)F GA BA | G4 G2 FA | GFED A3 A | Bdce f2 e2 | %14
w: stays, The grief * and *|com- * fort of my|mind.|While * of His|ab- * sence I * com- *|plain, And long, and|weep, as lo- vers do, There's|a strange plea- sure in the|
w: love, His ve- * ry *|name * cre- ates de-|light.|Je- * sus, my|God! * Yet ra- * ther *|come, Mine eyes would|dwell up- on Thy face; Tis|best to see my Lord at|
 d3 A BGEF | D2 C2 B,3 D | EFGF GABA | Bcdc d2 e2 | f3 e dABG | F2 E2 D4 |] %20
w: pain, And tears have their own|sweet- ness too; There's|a strange plea- sure in the pain, And|tears hav their own sweet- ness|too, And tears have their own|sweet- ness too.|
w: home, And feel the pre- sence|of His grace; Tis|best to see my Lord at home, And|feel the pre- sence of His|grace, And feel the pre- sence|of His grace.|
V:3
 D,2 D,2 D,2 | D,3 D, C,2 D,2 | !fermata!A,,4 D,2 D,D, | D,3 D, E,2 E,2 | A,4 F,2 E,D, | %5
 D,2 D,2 C,2 B,,2 | A,,3 D, C,D, E,F, | G,2 D,2 A,,2 A,,2 | D,4 z4 | z4 D,2 A,,A,, | %10
 (D,2 C,)D, E,F, G,A, | B,4 E,2 D,F, | E,D,C,B,, A,,3 D, | D,D,A,A, D2 A,2 | D,3 D, G,G,A,D, | %15
 F,2 F,2 B,,3 D, | C,D,E,D, E,F,G,F, | G,A,B,A, B,2 C2 | D3 A, B,F,G,G, | A,2 A,,2 D,4 |] %20

